src/assets/gardensLogoType.svg

<svg width="126" height="26" viewBox="0 0 126 26" fill="none" xmlns="http://www.w3.org/2000/svg">
<g clip-path="url(#clip0)">
<path d="M12.2 25.1169C4.6 25.1169 0 20.2169 0 13.6169C0 6.51686 5.4 1.21686 12.8 1.21686C16.3 1.21686 19 2.31686 20.6 3.41686C20.7 3.51686 20.8 3.61686 20.7 3.81686L19.3 8.21686C19.2 8.41686 19 8.51686 18.8 8.41686C17.5 7.51686 15.3 6.61686 12.9 6.61686C8.7 6.61686 6.3 9.41686 6.3 13.3169C6.3 17.7169 9.2 20.0169 12.6 20.0169C13.6 20.0169 14.5 19.9169 15.3 19.6169C15.4 19.6169 15.5 19.4169 15.5 19.3169V17.6169C15.5 17.3169 15.5 16.6169 15.5 16.1169C15.5 15.9169 15.4 15.8169 15.2 15.8169C14.5 15.8169 14.7 15.8169 13.7 15.8169C12.8 15.8169 12.1 15.8169 11.2 15.9169C11 15.9169 10.8 15.8169 10.9 15.6169C11 14.1169 11 12.9169 11 11.7169C11 11.5169 11.2 11.4169 11.3 11.4169C13 11.5169 14 11.5169 15.4 11.5169C17.9 11.5169 19 11.5169 21.1 11.4169C21.3 11.4169 21.5 11.6169 21.4 11.7169C21.3 13.3169 21.2 17.3169 21.2 19.3169V22.7169C21.2 22.8169 21.1 22.9169 21 23.0169C19 24.0169 16.4 25.1169 12.2 25.1169Z" fill="#164924"/>
<path d="M23.6 20.7169C23.6 17.5169 26.3 15.4169 31.6 15.4169C31.9 15.4169 32.3 15.4169 32.8 15.5169V15.1169C32.8 13.7169 32.2 13.0169 30.4 13.0169C28.7 13.0169 27 13.6169 25.7 14.2169C25.5 14.3169 25.3 14.2169 25.2 14.0169L24.6 10.5169C24.6 10.4169 24.6 10.2169 24.8 10.2169C26.6 9.21687 29.1 8.41687 31.7 8.41687C36.6 8.41687 38.7 10.4169 38.6 14.9169L38.5 20.1169C38.5 21.0169 38.8 21.2169 39.4 21.2169C39.5 21.2169 39.6 21.2169 39.8 21.1169C40 21.1169 40.2 21.2169 40.2 21.4169L40 24.2169C40 24.3169 39.9 24.4169 39.8 24.5169C38.9 24.8169 38 25.0169 37 25.0169C35.1 25.0169 33.7 24.4169 33.1 22.4169C32.2 24.0169 30.2 25.0169 28.3 25.0169C25.5 25.0169 23.6 23.4169 23.6 20.7169ZM32.8 19.3169L32.9 17.8169C32.6 17.8169 32.3 17.8169 32 17.8169C30.1 17.8169 29.3 18.7169 29.3 19.8169C29.3 20.9169 29.9 21.6169 30.9 21.6169C32 21.5169 32.7 20.8169 32.8 19.3169Z" fill="#164924"/>
<path d="M53.9001 13.7169C53.9001 13.8169 53.8001 13.9169 53.7001 13.8169C51.0001 13.6169 48.6 14.2169 48.6 17.2169V21.2169C48.6 22.3169 48.6001 23.7169 48.7001 24.5169H42.6C42.4 24.5169 42.3 24.3169 42.3 24.1169C42.4 22.7169 42.5 20.7169 42.5 18.9169V13.9169C42.5 12.2169 42.4 10.5169 42.3 9.21689C42.3 9.01689 42.4 8.91689 42.6 8.91689C43.8 8.91689 46.7 8.61689 48 8.41689C48.2 8.41689 48.3001 8.51689 48.4001 8.71689L48.6 12.4169C49.5 10.1169 51.3 8.51689 54.1 8.31689C54.2 8.31689 54.3 8.41689 54.3 8.51689L53.9001 13.7169Z" fill="#164924"/>
<path d="M66 9.21687V6.61687C66 4.81687 66 3.01687 65.9 1.71687C65.9 1.61687 66 1.51687 66 1.51687C67.3 1.41687 70.9 1.11687 72.1 0.91687C72.2 0.91687 72.3 1.01687 72.3 1.11687C72.2 2.01687 72.2 3.41687 72.2 4.41687V19.2169C72.2 21.0169 72.3 22.9169 72.4 24.4169C72.4 24.5169 72.3 24.6169 72.2 24.6169H66.6C66.5 24.6169 66.5 24.5169 66.4 24.5169L66.2 22.9169C65.4 24.0169 63.9 25.1169 61.8 25.1169C57.4 25.1169 54.9 21.3169 54.9 17.2169C54.9 12.0169 58.1 8.21687 62.6 8.21687C64.1 8.21687 65.1 8.61687 66 9.21687ZM61.1 16.7169C61.1 19.5169 62.3 20.9169 64 20.9169C64.9 20.9169 65.7 20.4169 66 19.8169V13.1169C65.4 12.7169 64.9 12.4169 64 12.4169C62.1 12.4169 61.1 14.4169 61.1 16.7169Z" fill="#164924"/>
<path d="M90.7 17.4168L80.5 17.6168C80.6 19.6168 81.9 20.7168 84.3 20.7168C86.6 20.7168 88.4 20.1168 89.9 19.3168C90.1 19.2168 90.4 19.4168 90.4 19.6168L90.3 23.1168C90.3 23.2168 90.2 23.3168 90.1 23.4168C88.2 24.5168 86 25.2168 83.5 25.2168C77.5 25.2168 74.6 21.5168 74.6 17.0168C74.6 12.1168 78.9 8.21685 83.8 8.41685C88.7 8.61685 90.8 12.0168 90.8 16.2168V17.4168C90.8 17.4168 90.8 17.4168 90.7 17.4168ZM85.5 15.0168C85.4 13.2168 84.7 12.2168 83.2 12.2168C81.6 12.2168 80.6 13.4168 80.5 15.1168L85.5 15.0168Z" fill="#164924"/>
<path d="M103.7 24.6169C103.6 24.6169 103.5 24.5169 103.5 24.4169C103.6 23.0169 103.7 20.9169 103.7 19.1169V15.7169C103.7 13.8169 103.3 12.9169 102 12.9169C100.5 12.9169 99.4 14.3169 99.4 15.6169V21.2169C99.4 22.3169 99.4 23.5169 99.5 24.4169C99.5 24.5169 99.4 24.6169 99.3 24.6169H93.2C93.1 24.6169 93 24.5169 93 24.4169C93.1 23.0169 93.2 20.9169 93.2 19.1169V14.2169C93.2 12.4169 93.1 10.5169 93 9.11688C93 9.01688 93.1 8.91688 93.2 8.91688C94.4 8.91688 97.8 8.51688 99 8.31688C99.1 8.31688 99.2 8.41688 99.2 8.51688L99.4 11.8169C100.7 9.51688 103.1 8.11688 105.3 8.11688C108.4 8.11688 109.9 10.2169 109.9 13.7169V21.1169C109.9 22.2169 110 23.4169 110 24.3169C110 24.4169 109.9 24.5169 109.8 24.5169H103.7V24.6169Z" fill="#164924"/>
<path d="M125.1 9.51689L124.2 12.9169C124.1 13.1169 123.9 13.2169 123.7 13.1169C122.6 12.6169 121.4 12.2169 120.2 12.2169C119 12.2169 118.4 12.6169 118.4 13.3169C118.4 15.0169 126 14.7169 126 19.8169C126 23.4169 123.1 25.2169 118.8 25.2169C117 25.2169 114.2 24.7169 112.7 24.0169C112.6 23.9169 112.5 23.8169 112.5 23.7169L112.6 20.0169C112.6 19.8169 112.9 19.6169 113.1 19.7169C114.6 20.4169 116.7 21.2169 118.6 21.2169C119.8 21.2169 120.4 20.7169 120.4 20.2169C120.4 18.3169 112.8 18.8169 112.8 13.6169C112.8 10.6169 115.3 8.31689 119.6 8.31689C121.6 8.31689 123.6 8.71689 124.9 9.21689C125 9.11689 125.1 9.31689 125.1 9.51689Z" fill="#164924"/>
</g>
<defs>
<clipPath id="clip0">
<rect width="126" height="24.2" fill="white" transform="translate(0 0.91687)"/>
</clipPath>
</defs>
</svg>

<svg width="126" height="26" fill="none" xmlns="http://www.w3.org/2000/svg"><g clip-path="url(#clip0)" fill="#164924"><path d="M12.2 25.117c-7.6 0-12.2-4.9-12.2-11.5 0-7.1 5.4-12.4 12.8-12.4 3.5 0 6.2 1.1 7.8 2.2.1.1.2.2.1.4l-1.4 4.4c-.1.2-.3.3-.5.2-1.3-.9-3.5-1.8-5.9-1.8-4.2 0-6.6 2.8-6.6 6.7 0 4.4 2.9 6.7 6.3 6.7 1 0 1.9-.1 2.7-.4.1 0 .2-.2.2-.3v-1.7-1.5c0-.2-.1-.3-.3-.3h-1.5c-.9 0-1.6 0-2.5.1-.2 0-.4-.1-.3-.3.1-1.5.1-2.7.1-3.9 0-.2.2-.3.3-.3 1.7.1 2.7.1 4.1.1 2.5 0 3.6 0 5.7-.1.2 0 .4.2.3.3-.1 1.6-.2 5.6-.2 7.6v3.4c0 .1-.1.2-.2.3-2 1-4.6 2.1-8.8 2.1zM23.6 20.717c0-3.2 2.7-5.3 8-5.3.3 0 .7 0 1.2.1v-.4c0-1.4-.6-2.1-2.4-2.1-1.7 0-3.4.6-4.7 1.2-.2.1-.4 0-.5-.2l-.6-3.5c0-.1 0-.3.2-.3 1.8-1 4.3-1.8 6.9-1.8 4.9 0 7 2 6.9 6.5l-.1 5.2c0 .9.3 1.1.9 1.1.1 0 .2 0 .4-.1.2 0 .4.1.4.3l-.2 2.8c0 .1-.1.2-.2.3-.9.3-1.8.5-2.8.5-1.9 0-3.3-.6-3.9-2.6-.9 1.6-2.9 2.6-4.8 2.6-2.8 0-4.7-1.6-4.7-4.3zm9.2-1.4l.1-1.5H32c-1.9 0-2.7.9-2.7 2s.6 1.8 1.6 1.8c1.1-.1 1.8-.8 1.9-2.3zM53.9 13.717c0 .1-.1.2-.2.1-2.7-.2-5.1.4-5.1 3.4v4c0 1.1 0 2.5.1 3.3h-6.1c-.2 0-.3-.2-.3-.4.1-1.4.2-3.4.2-5.2v-5c0-1.7-.1-3.4-.2-4.7 0-.2.1-.3.3-.3 1.2 0 4.1-.3 5.4-.5.2 0 .3.1.4.3l.2 3.7c.9-2.3 2.7-3.9 5.5-4.1.1 0 .2.1.2.2l-.4 5.2zM66 9.217v-2.6c0-1.8 0-3.6-.1-4.9 0-.1.1-.2.1-.2 1.3-.1 4.9-.4 6.1-.6.1 0 .2.1.2.2-.1.9-.1 2.3-.1 3.3v14.8c0 1.8.1 3.7.2 5.2 0 .1-.1.2-.2.2h-5.6c-.1 0-.1-.1-.2-.1l-.2-1.6c-.8 1.1-2.3 2.2-4.4 2.2-4.4 0-6.9-3.8-6.9-7.9 0-5.2 3.2-9 7.7-9 1.5 0 2.5.4 3.4 1zm-4.9 7.5c0 2.8 1.2 4.2 2.9 4.2.9 0 1.7-.5 2-1.1v-6.7c-.6-.4-1.1-.7-2-.7-1.9 0-2.9 2-2.9 4.3zM90.7 17.417l-10.2.2c.1 2 1.4 3.1 3.8 3.1 2.3 0 4.1-.6 5.6-1.4.2-.1.5.1.5.3l-.1 3.5c0 .1-.1.2-.2.3-1.9 1.1-4.1 1.8-6.6 1.8-6 0-8.9-3.7-8.9-8.2 0-4.9 4.3-8.8 9.2-8.6 4.9.2 7 3.6 7 7.8v1.2h-.1zm-5.2-2.4c-.1-1.8-.8-2.8-2.3-2.8-1.6 0-2.6 1.2-2.7 2.9l5-.1zM103.7 24.617c-.1 0-.2-.1-.2-.2.1-1.4.2-3.5.2-5.3v-3.4c0-1.9-.4-2.8-1.7-2.8-1.5 0-2.6 1.4-2.6 2.7v5.6c0 1.1 0 2.3.1 3.2 0 .1-.1.2-.2.2h-6.1c-.1 0-.2-.1-.2-.2.1-1.4.2-3.5.2-5.3v-4.9c0-1.8-.1-3.7-.2-5.1 0-.1.1-.2.2-.2 1.2 0 4.6-.4 5.8-.6.1 0 .2.1.2.2l.2 3.3c1.3-2.3 3.7-3.7 5.9-3.7 3.1 0 4.6 2.1 4.6 5.6v7.4c0 1.1.1 2.3.1 3.2 0 .1-.1.2-.2.2h-6.1v.1zM125.1 9.517l-.9 3.4c-.1.2-.3.3-.5.2-1.1-.5-2.3-.9-3.5-.9-1.2 0-1.8.4-1.8 1.1 0 1.7 7.6 1.4 7.6 6.5 0 3.6-2.9 5.4-7.2 5.4-1.8 0-4.6-.5-6.1-1.2-.1-.1-.2-.2-.2-.3l.1-3.7c0-.2.3-.4.5-.3 1.5.7 3.6 1.5 5.5 1.5 1.2 0 1.8-.5 1.8-1 0-1.9-7.6-1.4-7.6-6.6 0-3 2.5-5.3 6.8-5.3 2 0 4 .4 5.3.9.1-.1.2.1.2.3z"/></g><defs><clipPath id="clip0"><path fill="#fff" transform="translate(0 .917)" d="M0 0h126v24.2H0z"/></clipPath></defs></svg>
